src/flags/country-flag/1F1FB-1F1FA.svg

<?xml version="1.0" encoding="UTF-8"?>
<svg id="emoji" xmlns="http://www.w3.org/2000/svg" viewBox="0 0 72 72">
  <g id="grid">
    <path d="m68,4v64H4V4h64M72,0H0v72h72V0Z" fill="#b3b3b3"/>
    <path d="m12.923,10.9583h46.1539c1.0621,0,1.9231.861,1.9231,1.9231h0v46.1538c0,1.0621-.861,1.9231-1.9231,1.9231H12.9231c-1.0621,0-1.9231-.861-1.9231-1.9231h0V12.8813c0-1.062.861-1.923,1.923-1.923h0Z" fill="none" stroke="#00a5ff" stroke-miterlimit="10" stroke-width=".1"/>
    <rect x="16" y="4" width="40" height="64" rx="2.2537" ry="2.2537" fill="none" stroke="#00a5ff" stroke-miterlimit="10" stroke-width=".1"/>
    <rect x="4" y="16" width="64" height="40" rx="2.2537" ry="2.2537" fill="none" stroke="#00a5ff" stroke-miterlimit="10" stroke-width=".1"/>
    <circle cx="36" cy="36" r="29" fill="none" stroke="#00a5ff" stroke-miterlimit="10" stroke-width=".1"/>
  </g>
  <g id="color">
    <rect x="5" y="17" width="62" height="38" fill="#d22f27"/>
    <rect x="5" y="36" width="62" height="19" fill="#5c9e31"/>
    <path d="m25.248,36.6804L6.5332,53.6128c-.5899.5337-1.5332.1151-1.5332-.6804V19.0675c0-.7955.9432-1.2141,1.5332-.6804l18.7148,16.9325c.4026.3643.4026.9965,0,1.3608Z"/>
    <polygon points="26 34 5 17 5 21 23.529 36 5 51 5 55 26 38 67 38 67 34 26 34" fill="#f1b31c" stroke="#000" stroke-linecap="round" stroke-linejoin="round" stroke-width="2"/>
    <path d="m12.3334,39.2727c2.1513.1362,4.0105-1.4864,4.1666-3.6363-.1248-1.72-1.6123-3.0181-3.3333-2.9091-1.3768-.0872-2.5668.9512-2.6667,2.3272.0799,1.1008,1.0319,1.9316,2.1334,1.8619" fill="none" stroke="#f1b31c" stroke-linecap="round" stroke-linejoin="round"/>
  </g>
  <g id="line">
    <rect x="5" y="17" width="62" height="38" fill="none" stroke="#000" stroke-linecap="round" stroke-linejoin="round" stroke-width="2"/>
  </g>
</svg>

<svg id="emoji" viewBox="0 0 72 72" xmlns="http://www.w3.org/2000/svg">
  <g id="grid">
    <path fill="#b3b3b3" d="M68,4V68H4V4H68m4-4H0V72H72V0Z"/>
    <path fill="none" stroke="#00a5ff" stroke-miterlimit="10" stroke-width="0.1" d="M12.923,10.9583H59.0769A1.9231,1.9231,0,0,1,61,12.8814V59.0352a1.9231,1.9231,0,0,1-1.9231,1.9231H12.9231A1.9231,1.9231,0,0,1,11,59.0352V12.8813A1.923,1.923,0,0,1,12.923,10.9583Z"/>
    <rect x="16" y="4" rx="2.2537" ry="2.2537" width="40" height="64" fill="none" stroke="#00a5ff" stroke-miterlimit="10" stroke-width="0.1"/>
    <rect x="16" y="4" rx="2.2537" ry="2.2537" width="40" height="64" transform="translate(72) rotate(90)" fill="none" stroke="#00a5ff" stroke-miterlimit="10" stroke-width="0.1"/>
    <circle cx="36" cy="36" r="29" fill="none" stroke="#00a5ff" stroke-miterlimit="10" stroke-width="0.1"/>
  </g>
  <g id="color">
    <rect x="5" y="17" width="62" height="38" fill="#d22f27"/>
    <rect x="5" y="36" width="62" height="19" fill="#5c9e31"/>
    <polygon points="26 36 5 55 5 17 26 36"/>
    <polygon fill="#f1b31c" stroke="#000" stroke-linecap="round" stroke-linejoin="round" stroke-width="2" points="26 34 5 17 5 21 23.529 36 5 51 5 55 26 38 67 38 67 34 26 34"/>
    <path fill="none" stroke="#f1b31c" stroke-linecap="round" stroke-linejoin="round" d="M12.3334,39.2727A3.9286,3.9286,0,0,0,16.5,35.6364a3.1429,3.1429,0,0,0-3.3333-2.9091A2.5143,2.5143,0,0,0,10.5,35.0545a2.0116,2.0116,0,0,0,2.1334,1.8619"/>
  </g>
  <g id="line">
    <rect x="5" y="17" width="62" height="38" fill="none" stroke="#000" stroke-linecap="round" stroke-linejoin="round" stroke-width="2"/>
  </g>
</svg>
